X:1
T:You Servants of God, Your Master Proclaim
T:Text: Charles Wesley, 1744, alt. Tune: attr. William Croft, 1708
T:10 10 11 11 HANOVER www.hymnary.org/text/ye_servants_of_god_your_master_proclaim
T:You Servants of God, Your Master Proclaim
T:This  hymn is in the public domain.  You may freely use this score for personal and congregational worship.  If you reproduce the score, please credit Hymnary.org as the source. 
T:This  hymn is in the public domain.  You may freely use this score for personal and congregational worship.  If you reproduce the score, please credit Hymnary.org as the source. 
Z:This  hymn is in the public domain.  You may freely use this score for personal and congregational worship.  If you reproduce the score, please credit Hymnary.org as the source.
%%score ( 1 2 ) ( 3 4 )
L:1/8
M:3/4
K:G
V:1 treble nm="SOPRANO ALTO" snm="S. A."
V:2 treble 
V:3 bass nm="TENOR BASS" snm="T. B."
V:4 bass 
V:1
"^1""^2""^3""^4" D2 | G2 G2 A2 | B4 d2 | G2 A2 F2 | G4 | A2 | B2 A2 G2 | F4 G2 | A2 GF E2 | D4 | %10
w: You|ser- vants of|God, your|Mas- ter pro-|claim,|and|pub- lish a-|broad his|won- der- * ful|name;|
w: God|rules in the|height, al-|might- y to|save;|though|hid from our|sight, his|pres- ence * we|have;|
w: "Sal-|va- tion to|God, who|sits on the|throne!"|let|all cry a-|loud, and|hon- or * the|Son;|
w: Then|let us a-|dore and|give him his|right:|all|glo- ry and|power, all|wis- dom * and|might,|
 F2 | G2 A2 B2 | G2 E2 c2 | B2 A2 G2 | d4 |1 D2 | E2 F2 G2 | A2 D2 B2 | E2 A2 F2 | G4 x2 |] %20
w: the|name all- vic-|to- rious of|Je- sus ex-|tol;|his|king- dom is|glo- rious and|rules o- ver|all.|
w: the|great con- gre-|ga- tion his|tri- umph shall|sing,|as-|crib- ing sal-|va- tion to|Je- sus our|King.|
w: the|prais- es of|Je- sus the|an- gels pro-|claim,|fall|down on their|fac- es and|wor- ship the|Lamb.|
w: all|hon- or and|bless- ing— with|an- gels a-|bove—|and|thanks nev- er|ceas- ing for|in- fi- nite|love.|
V:2
 B,2 | D2 D2 D2 | D4 D2 | E2 E2 D2 | D4 | D2 | D2 D2 D^C | D4 D2 | D2 ED ^C2 | D4 | ^D2 | %11
 E2 E2 ^D2 | B,2 B,2 =D2 | D2 D2 G2 | F4 |1 D2 | C2 C2 D2 | D2 D2 D2 | C2 E2 D2 | D4 x2 |] %20
V:3
 G,2 | B,2 G,2 F,2 | G,4 A,2 | B,2 C2 A,2 | B,4 | F,2 | G,2 A,2 A,2 | A,4 B,2 | A,2 B,2 G,2 | F,4 | %10
 B,2 | B,2 E,2 F,2 | G,2 G,2 A,2 | G,2 D2 D^C | D4 |1 G,2 | G,2 A,2 B,2 | A,2 F,2 G,2 | %18
 G,2 C2 A,2 | B,4 x2 |] %20
V:4
 G,,2 | G,,2 B,,2 D,2 | G,4 F,2 | E,2 C,2 D,2 | G,,4 | D,2 | G,2 F,2 E,2 | D,4 B,,2 | %8
 F,,2 G,,2 A,,2 | D,4 | B,,2 | E,2 C,2 B,,2 | E,2 E,2 F,2 | G,2 F,2 E,2 | D,4 |1 B,,2 | %16
 C,2 A,,2 G,,2 | F,,2 B,,2 G,,2 | C,2 A,,2 D,2 | G,,4 x2 |] %20

